images/singl-page/fb-social.svg

<svg width="10" height="18" viewBox="0 0 10 18" fill="none" xmlns="http://www.w3.org/2000/svg">
<path d="M0.824093 9.54268H2.68157V17.0639C2.68157 17.2124 2.80391 17.3327 2.95489 17.3327H6.10431C6.25529 17.3327 6.37763 17.2124 6.37763 17.0639V9.57811H8.51296C8.6518 9.57811 8.76861 9.47564 8.78446 9.33999L9.10878 6.57107C9.11769 6.49489 9.09314 6.4186 9.04132 6.36144C8.98945 6.30424 8.91522 6.2715 8.83732 6.2715H6.37774V4.5358C6.37774 4.01257 6.66417 3.74725 7.22916 3.74725C7.30967 3.74725 8.83732 3.74725 8.83732 3.74725C8.9883 3.74725 9.11063 3.62688 9.11063 3.47843V0.936822C9.11063 0.788327 8.9883 0.668005 8.83732 0.668005H6.62104C6.6054 0.667252 6.57069 0.666016 6.51953 0.666016C6.13498 0.666016 4.79832 0.740263 3.74246 1.69564C2.57258 2.75435 2.7352 4.02198 2.77406 4.24177V6.27145H0.824093C0.673116 6.27145 0.550781 6.39177 0.550781 6.54026V9.27381C0.550781 9.42231 0.673116 9.54268 0.824093 9.54268Z" fill="#161616"/>
</svg>

<svg width="10" height="18" fill="none" xmlns="http://www.w3.org/2000/svg"><path d="M.824 9.543h1.858v7.52c0 .15.122.27.273.27h3.15c.15 0 .273-.12.273-.27V9.579h2.135a.272.272 0 00.271-.238l.325-2.769a.266.266 0 00-.068-.21.275.275 0 00-.204-.09h-2.46V4.536c0-.523.287-.789.852-.789h1.608c.151 0 .274-.12.274-.269V.937a.271.271 0 00-.274-.269H6.621c-.016 0-.05-.002-.101-.002-.385 0-1.722.074-2.778 1.03-1.17 1.058-1.007 2.326-.968 2.546v2.03H.824a.271.271 0 00-.273.268v2.734c0 .148.122.269.273.269z" fill="#161616"/></svg>
